!!Giovanni Pietro del Buono
!!Canoni, oblighi et Sonate in varie maniere sopra l'Ave Maris Stella
!!Palermo: P.Deuti, 1641.
!!All'unisono a mezza pausa con l'obligo di non caminar di grado.
**kern
*k[]
*M4/2
=1
0D
=2
(0A
=3
0B)
=4
0G
=5
(0A
=6
0B
=7
0c
=8
0d
=9
0c
=10
0B
=11
0A
=12
0G
=13
0A
=14
0A
=15
0A
=16
0G
=17
0A
=18
0D
=19
0E
=20
0G
=21
0F
=22
0E
=23
0D
=24
0E
=25
0D
=26
0F
=27
0E
=28
0G
=29
0A
=30
0A
=31
0D
=32
0E
=33
0F
=34
0E
=35
0D
=36
0C
=37
0E
=38
0G
=39
0E
=40
0F
=41
0E
=42
[0D
=43
0D_
=44
0D]
==
*-
